X:75
T:Morrison's Jig
R:jig
M:6/8
L:1/8
K:Bm
EEE BEB | EBE AFD | EEE BEB | dcB AFD | EEE BEB | EBE AFD | GFG FGA |
dAG FED :: Bee fee | aee fee | Bee fef |1fag fed | Bee fee | aee fee |
edc d2A | BAG FED :|2 faf def | g2g gfe | def g2d | edc d2A | BAG FED |]
